icons/numix/32x32/mimetypes/wps-office-ppt.svg

<?xml version="1.0" encoding="UTF-8" standalone="no"?>
<svg
   xmlns:dc="http://purl.org/dc/elements/1.1/"
   xmlns:cc="http://creativecommons.org/ns#"
   xmlns:rdf="http://www.w3.org/1999/02/22-rdf-syntax-ns#"
   xmlns:svg="http://www.w3.org/2000/svg"
   xmlns="http://www.w3.org/2000/svg"
   xmlns:sodipodi="http://sodipodi.sourceforge.net/DTD/sodipodi-0.dtd"
   xmlns:inkscape="http://www.inkscape.org/namespaces/inkscape"
   width="32"
   height="32"
   viewBox="0 0 32 32"
   id="svg3007"
   version="1.1"
   inkscape:version="0.48.5 r10040"
   sodipodi:docname="wps-office-ppt.svg">
  <metadata
     id="metadata3039">
    <rdf:RDF>
      <cc:Work
         rdf:about="">
        <dc:format>image/svg+xml</dc:format>
        <dc:type
           rdf:resource="http://purl.org/dc/dcmitype/StillImage" />
      </cc:Work>
    </rdf:RDF>
  </metadata>
  <defs
     id="defs3037" />
  <sodipodi:namedview
     pagecolor="#ffffff"
     bordercolor="#666666"
     borderopacity="1"
     objecttolerance="10"
     gridtolerance="10"
     guidetolerance="10"
     inkscape:pageopacity="0"
     inkscape:pageshadow="2"
     inkscape:window-width="1280"
     inkscape:window-height="970"
     id="namedview3035"
     showgrid="true"
     inkscape:zoom="10.429825"
     inkscape:cx="-11.262014"
     inkscape:cy="28.118527"
     inkscape:window-x="0"
     inkscape:window-y="0"
     inkscape:window-maximized="1"
     inkscape:current-layer="svg3007">
    <inkscape:grid
       type="xygrid"
       id="grid3139" />
  </sodipodi:namedview>
  <path
     style="fill:#d14626;fill-opacity:1"
     d="M 5.335888,2.9716e-4 C 4.648414,3.1216e-4 4,0.67678816 4,1.3940322 L 4,30.606268 C 4,31.282757 4.687474,32 5.335888,32 l 21.327332,0 c 0.648414,0 1.335888,-0.717243 1.335888,-1.393732 L 28,9.0000002 19,1.6e-7 z"
     id="path4-1"
     inkscape:connector-curvature="0"
     sodipodi:nodetypes="ssssssccs" />
  <path
     style="fill:#000000;fill-opacity:0.19599998"
     d="M 21,9.0000002 28,16 28,9.0000002 z"
     id="path6-4"
     inkscape:connector-curvature="0"
     sodipodi:nodetypes="cccc" />
  <path
     style="fill:#ffffff;fill-opacity:0.39200003"
     d="m 19.000306,2.9716e-4 8.991594,8.99970304 -7.613262,0 c -0.672951,0 -1.378332,-0.7134896 -1.378332,-1.3864402 z"
     id="path8-6"
     inkscape:connector-curvature="0"
     sodipodi:nodetypes="ccssc" />
  <path
     style="fill:#000000;fill-opacity:0.19599998"
     d="m 4,24 0,6.667969 C 4,31.316407 4.6875,32 5.332031,32 l 21.335938,0 C 27.3125,32 28,31.316407 28,30.667969 L 28,24 z"
     id="path20"
     inkscape:connector-curvature="0" />
  <path
     style="fill:#ffffff"
     inkscape:connector-curvature="0"
     id="path3009"
     d="m 8,12 5,0 0,3 -5,0 z" />
  <g
     style="fill:#ffffff"
     id="g3027"
     transform="matrix(1.0497949,0,0,1.0497949,-0.79671876,-0.49384768)">
    <path
       d="m 10.929688,24.667969 c 0.738281,0 1.308593,0.136719 1.714843,0.417969 0.40625,0.269531 0.609375,0.71875 0.609375,1.34375 0,0.632812 -0.203125,1.089843 -0.617187,1.371093 -0.40625,0.28125 -0.984375,0.417969 -1.738281,0.417969 l -0.410157,0 0,1.78125 -1.15625,0 0,-5.207031 c 0.113281,-0.01953 0.238281,-0.04297 0.375,-0.05859 0.144531,-0.01563 0.289063,-0.02734 0.433594,-0.03516 0.144531,-0.01172 0.285156,-0.01953 0.421875,-0.02344 0.136719,-0.0078 0.257812,-0.0078 0.367188,-0.0078 m 0.128906,0.910156 c -0.06641,0 -0.164063,0.0039 -0.289063,0.0078 -0.121093,0 -0.214843,0.0078 -0.28125,0.01953 l 0,1.703125 0.46875,0 c 0.367188,0 0.648438,-0.06641 0.835938,-0.195313 0.1875,-0.136719 0.28125,-0.367187 0.28125,-0.691406 0,-0.308594 -0.09375,-0.523437 -0.28125,-0.648437 -0.183594,-0.128907 -0.425781,-0.195313 -0.734375,-0.195313"
       id="path3029"
       inkscape:connector-curvature="0" />
    <path
       d="m 15.621094,24.667969 c 0.738281,0 1.308594,0.136719 1.714844,0.417969 0.40625,0.269531 0.609374,0.71875 0.609374,1.34375 0,0.632812 -0.203124,1.089843 -0.617187,1.371093 -0.40625,0.28125 -0.984375,0.417969 -1.734375,0.417969 l -0.414062,0 0,1.78125 -1.15625,0 0,-5.207031 c 0.113281,-0.01953 0.238281,-0.04297 0.375,-0.05859 0.144531,-0.01563 0.289062,-0.02734 0.433593,-0.03516 0.144531,-0.01172 0.285157,-0.01953 0.421875,-0.02344 0.136719,-0.0078 0.261719,-0.0078 0.367188,-0.0078 M 15.75,25.578125 c -0.06641,0 -0.164062,0.0039 -0.289062,0.0078 -0.121094,0 -0.214844,0.0078 -0.28125,0.01953 l 0,1.703125 0.46875,0 c 0.367187,0 0.648437,-0.06641 0.835937,-0.195313 0.1875,-0.136719 0.28125,-0.367187 0.28125,-0.691406 0,-0.308594 -0.09375,-0.523437 -0.28125,-0.648437 C 16.300781,25.644531 16.058594,25.578125 15.75,25.578125"
       id="path3031"
       inkscape:connector-curvature="0" />
    <path
       d="m 22.667969,24.726562 0,0.867188 -1.53125,0 0,4.40625 -1.164063,0 0,-4.40625 -1.527344,0 0,-0.867188 4.222657,0"
       id="path3033"
       inkscape:connector-curvature="0" />
  </g>
  <path
     style="fill:#ffffff"
     inkscape:connector-curvature="0"
     id="path3011"
     d="m 8,17 5,0 0,3 -5,0 z" />
  <path
     style="fill:#ffffff"
     inkscape:connector-curvature="0"
     id="path3015"
     d="M 20,10.992539 20,15 l 4,0 c 0,-2.214356 -1.791478,-4.007461 -4,-4.007461 z" />
  <path
     style="fill:#ffffff"
     inkscape:connector-curvature="0"
     id="path3017"
     d="M 19.001814,12 C 16.792291,12 15,13.789768 15,16 c 0,2.210233 1.792291,4 4.001814,4 C 21.211338,20 23,18.210233 23,16 l -3.998186,0 z" />
</svg>

<svg width="32" xmlns="http://www.w3.org/2000/svg" height="32" viewBox="0 0 32 32" xmlns:xlink="http://www.w3.org/1999/xlink">
<path style="fill:#d14626" d="M 5.332031 0.667969 C 4.648438 0.667969 4 1.3125 4 2 L 4 30 C 4 30.648438 4.6875 31.332031 5.332031 31.332031 L 26.667969 31.332031 C 27.3125 31.332031 28 30.648438 28 30 L 28 9.332031 L 19.332031 0.667969 Z "/>
<path style="fill:#000;fill-opacity:.196" d="M 19.332031 8 L 19.375 8.042969 L 19.480469 8 Z M 20.667969 9.332031 L 28 16.667969 L 28 9.332031 Z "/>
<path style="fill:#fff;fill-opacity:.392" d="M 19.332031 0.667969 L 28 9.332031 L 20.667969 9.332031 C 20.019531 9.332031 19.332031 8.648438 19.332031 8 Z "/>
<g style="fill:#fff">
<path d="M 8 10.667969 L 12.667969 10.667969 L 12.667969 14 L 8 14 Z "/>
<path d="M 8 16 L 12.667969 16 L 12.667969 19.332031 L 8 19.332031 Z "/>
<path d="M 19.691406 10.667969 L 19.691406 14.867188 L 24 14.867188 C 24 12.546875 22.070312 10.667969 19.691406 10.667969 Z "/>
<path d="M 19.078125 11.265625 C 16.699219 11.265625 14.769531 13.148438 14.769531 15.464844 C 14.769531 17.785156 16.699219 19.667969 19.078125 19.667969 C 21.457031 19.667969 23.382812 17.785156 23.382812 15.464844 L 19.078125 15.464844 Z "/>
</g>
<path style="fill:#000;fill-opacity:.196" d="M 4 23.332031 L 4 30 C 4 30.648438 4.6875 31.332031 5.332031 31.332031 L 26.667969 31.332031 C 27.3125 31.332031 28 30.648438 28 30 L 28 23.332031 Z "/>
<g style="fill:#fff">
<path d="M 10.929688 24.667969 C 11.667969 24.667969 12.238281 24.804688 12.644531 25.085938 C 13.050781 25.355469 13.253906 25.804688 13.253906 26.429688 C 13.253906 27.0625 13.050781 27.519531 12.636719 27.800781 C 12.230469 28.082031 11.652344 28.21875 10.898438 28.21875 L 10.488281 28.21875 L 10.488281 30 L 9.332031 30 L 9.332031 24.792969 C 9.445312 24.773438 9.570312 24.75 9.707031 24.734375 C 9.851562 24.71875 9.996094 24.707031 10.140625 24.699219 C 10.285156 24.6875 10.425781 24.679688 10.5625 24.675781 C 10.699219 24.667969 10.820312 24.667969 10.929688 24.667969 M 11.058594 25.578125 C 10.992188 25.578125 10.894531 25.582031 10.769531 25.585938 C 10.648438 25.585938 10.554688 25.59375 10.488281 25.605469 L 10.488281 27.308594 L 10.957031 27.308594 C 11.324219 27.308594 11.605469 27.242188 11.792969 27.113281 C 11.980469 26.976562 12.074219 26.746094 12.074219 26.421875 C 12.074219 26.113281 11.980469 25.898438 11.792969 25.773438 C 11.609375 25.644531 11.367188 25.578125 11.058594 25.578125 "/>
<path d="M 15.621094 24.667969 C 16.359375 24.667969 16.929688 24.804688 17.335938 25.085938 C 17.742188 25.355469 17.945312 25.804688 17.945312 26.429688 C 17.945312 27.0625 17.742188 27.519531 17.328125 27.800781 C 16.921875 28.082031 16.34375 28.21875 15.59375 28.21875 L 15.179688 28.21875 L 15.179688 30 L 14.023438 30 L 14.023438 24.792969 C 14.136719 24.773438 14.261719 24.75 14.398438 24.734375 C 14.542969 24.71875 14.6875 24.707031 14.832031 24.699219 C 14.976562 24.6875 15.117188 24.679688 15.253906 24.675781 C 15.390625 24.667969 15.515625 24.667969 15.621094 24.667969 M 15.75 25.578125 C 15.683594 25.578125 15.585938 25.582031 15.460938 25.585938 C 15.339844 25.585938 15.246094 25.59375 15.179688 25.605469 L 15.179688 27.308594 L 15.648438 27.308594 C 16.015625 27.308594 16.296875 27.242188 16.484375 27.113281 C 16.671875 26.976562 16.765625 26.746094 16.765625 26.421875 C 16.765625 26.113281 16.671875 25.898438 16.484375 25.773438 C 16.300781 25.644531 16.058594 25.578125 15.75 25.578125 "/>
<path d="M 22.667969 24.726562 L 22.667969 25.59375 L 21.136719 25.59375 L 21.136719 30 L 19.972656 30 L 19.972656 25.59375 L 18.445312 25.59375 L 18.445312 24.726562 L 22.667969 24.726562 "/>
</g>
</svg>
